material/.icons/material/calendar-clock.svg

<svg xmlns="http://www.w3.org/2000/svg" viewBox="0 0 24 24"><path d="M15 13h1.5v2.82l2.44 1.41-.75 1.3L15 16.69V13m4-5H5v11h4.67c-.43-.91-.67-1.93-.67-3a7 7 0 017-7c1.07 0 2.09.24 3 .67V8M5 21a2 2 0 01-2-2V5c0-1.11.89-2 2-2h1V1h2v2h8V1h2v2h1a2 2 0 012 2v6.1c1.24 1.26 2 2.99 2 4.9a7 7 0 01-7 7c-1.91 0-3.64-.76-4.9-2H5m11-9.85A4.85 4.85 0 0011.15 16c0 2.68 2.17 4.85 4.85 4.85A4.85 4.85 0 0020.85 16c0-2.68-2.17-4.85-4.85-4.85z"/></svg>

<?xml version="1.0" encoding="UTF-8"?><!DOCTYPE svg PUBLIC "-//W3C//DTD SVG 1.1//EN" "http://www.w3.org/Graphics/SVG/1.1/DTD/svg11.dtd"><svg xmlns="http://www.w3.org/2000/svg" xmlns:xlink="http://www.w3.org/1999/xlink" version="1.1" id="mdi-calendar-clock" width="24" height="24" viewBox="0 0 24 24"><path d="M15,13H16.5V15.82L18.94,17.23L18.19,18.53L15,16.69V13M19,8H5V19H9.67C9.24,18.09 9,17.07 9,16A7,7 0 0,1 16,9C17.07,9 18.09,9.24 19,9.67V8M5,21C3.89,21 3,20.1 3,19V5C3,3.89 3.89,3 5,3H6V1H8V3H16V1H18V3H19A2,2 0 0,1 21,5V11.1C22.24,12.36 23,14.09 23,16A7,7 0 0,1 16,23C14.09,23 12.36,22.24 11.1,21H5M16,11.15A4.85,4.85 0 0,0 11.15,16C11.15,18.68 13.32,20.85 16,20.85A4.85,4.85 0 0,0 20.85,16C20.85,13.32 18.68,11.15 16,11.15Z" /></svg>
